source/svgs/bowtie/uEA98-package-feed-mix.svg

<svg xmlns="http://www.w3.org/2000/svg" viewBox="0 0 448 448" enable-background="new 0 0 448 448"><path d="M320 448h-320v-320h320v320zm-288-32h256v-256h-256v256zm32-224v192h192v-192h-192zm160 96h-128v-64h128v64z"/></svg>

<svg xmlns="http://www.w3.org/2000/svg" viewBox="0 0 448 448"><path d="M320 448H0V128h320v320zM32 416h256V160H32v256zm32-224v192h192V192H64zm160 96H96v-64h128v64z"/></svg>
